X:1
T:Ashley
T:E minor            Hezekiah Moors, 1809
T:Counter by B. C. Johnston, 2018.
T:Isaac Watts, 1719 (Psalm 90, Part 2)            86. 86. (C. M.)
T:Treble-Tenor-Bass Transcribed from Province Harmony, 1809;
T:__________________________________________________________________________________________________________________________ Edited by B. C. Johnston, 2018 1. Grace eighth notes replaaced by normal eighth notes in measures 4, 6, and 11. 2. Original measure 11 begins a 2:4 section with several fermata . Rebarred to keep 3:4 time and eliminate fermata . Original in A below, replaced by B. A                                                                                      B
%%score [ 1 2 3 4 ]
L:1/8
Q:1/4=90
M:3/4
K:G
V:1 treble nm="Tr." snm="Tr."
V:2 treble nm="C." snm="C."
V:3 treble-8 nm="T." snm="T."
V:4 bass nm="B." snm="B."
V:1
"_1. Tis but a few whose days a  –  mount  To threescore years and ten; And all beyond  that short  ac – count     Is sorrow,     toil,         and  pain." B2 B2 B2 | %1
 G4 F2 | (G>A B2) c2 | (c B3) B2 | B4 B2 | Bc B4 | B4 B2 | G4 A2 | d4 d2 | (B>A G2) c2 | %10
 (c B3) z2 | G2 A F3 | z2 (G E3) | z2 ^D4 | E6 |] %15
V:2
"_2. Almighty God,  reveal      thy   love,   And not thy wrath a  – lone;  O let  our sweet  experience  prove      The mercies    of           thy throne!" E2 E2 B2 | %1
 E4 F2 | (G>F E2) A2 | (E ^D3) E2 | E4 G>F | E2 (E ^D3) | E4 B2 | B4 A2 | G4 F2 | (G>A B2) c2 | %10
 B4 z2 | B2 c A3 | z2 G4 | z2 F4 | G6 |] %15
V:3
"_3. Our souls would learn the heavenly art T'im–prove the hours we have, That we may act the wiser part,       Beyond the   grave          to  live." B2 B2 ^d2 | %1
 e4 ^d2 | (e>f g2) fe | (e ^d3) e2 | B4 g>f | e2 (e ^d3) | e4 e2 | (B2 cB) A2 | G4 F2 | %9
 (G>A B2) e2 | (e ^d3) z2 | B2 c A3 | z2 (B G3) | z2 F4 | E6 |] %15
V:4
 E,2 E,2 B,,2 | E,4 B,2 | (G,>F, E,2) A,,2 | B,,4 E,2 | E,4 B,2 | G,A, B,4 | E,4 E,2 | E,4 F,2 | %8
 G,4 D,2 | E,4 A,,2 | B,,4 z2 | E,2 A, A,3 | z2 B,4 | z2 B,,4 | E,6 |] %15

